X:11515
T:Mueira de Lliberdn (MQ 088)
R:Mueira
C:Tradicional
S:Msica Tradicional Asturiana, (C) Tello & Tito. Asturies, 2001.
S:http://pagina.de/MusTradAst <telloytito@asturies.org>
N:Mueira que sola tocar el "Gaiteru Libardn", de ah que lleve su nombre.
O:Lliberdn
A:Asturies
Z:Manolo Quirs 088
M:6/8
L:1/8
Q:3/8=88
K:C
GAB
|:c2 B ABA|G2 E GAG|FED FED|A2 G GAB|c2 B ABA|G2 E GAG|FED FED|C3 GAB:|
|:cBc GAG|EDC CDE|FED DEF|A2 G GAB|cBc GAG|EDC CDE|FED DB,D|[1 C3 GAB:|[2 C3 
ABA|
|GEC DDD|EDC CDE|FED DEF|A2 G ABA|GEC DDD|EDC CDE|FED DB,D|C3 ABA|
GEC EDE|GEC CDE|FED DEF|A2 G ABA|GEC EDE|GEC CDE|FED DB,D|C3 GAB|
c2 E EDE|GEC CDE|EDE EDE|EDC CDE|EDE EDE|EDC EFG|GEG GEG|EDC EFG|
GEG GEG|EDC EFG|GFE EFG|GFE EFG|GFG GFG|GFE EFG|GFE EFG|GFE EFG|
GFG GFG|GFE FEF|GFE FEF|GFE FDE|C6||
